%
O1002
(T1 D=0.1563 CR=0. TAPER=118DEG - ZMIN=-4.133 - DRILL)
(T2 D=0.842 CR=0. TAPER=45DEG - ZMIN=-0.07 - CHAMFER MILL)
(T3 D=0.1875 CR=0. TAPER=118DEG - ZMIN=-3.1193 - DRILL)
(T4 D=0.5625 CR=0. - ZMIN=-0.65 - RIGHT HAND TAP)
(T6 D=0.629 CR=0. - ZMIN=-1.645 - RIGHT HAND TAP)
(T11 D=0.25 CR=0. TAPER=118DEG - ZMIN=-2.0107 - DRILL)
(T13 D=0.4375 CR=0. - ZMIN=-0.507 - RIGHT HAND TAP)
(T16 D=0.375 CR=0. TAPER=118DEG - ZMIN=-4.2377 - DRILL)
(T50 D=0.613 CR=0. - ZMIN=-2.353 - FORM MILL)
(T51 D=0.7045 CR=0. - ZMIN=-2.157 - FORM MILL)
G90 G94 G17 G49 G40 G80
G20
G90 G94 G17 G49 G40 G80
G20
G28 G91 Z0.
G90
G28 G91 X0. Y0.
G90

(TRACE1)
G28 G91 Z0.
G90
T2 M06
T1
S5000 M03
G17 G90 G94
G54
M08
G00 X2.625 Y-0.2082
G43 Z0.6 H02
G00 Z0.2
G01 Z-0.006 F3.3
X2.6563 F10.
X2.6771 Y-0.2135
X2.6927 Y-0.2242
X2.7031 Y-0.2401
Y-0.2561
X2.6927 Y-0.272
X2.6771 Y-0.2827
X2.6563 Y-0.288
X2.6146
X2.5937 Y-0.2827
X2.5781 Y-0.2667
X2.5729 Y-0.2508
X2.5417
X2.5469 Y-0.272
X2.5625 Y-0.2986
X2.5885 Y-0.3146
X2.6146 Y-0.3199
X2.6563
X2.6823 Y-0.3146
X2.7031 Y-0.3039
X2.724 Y-0.2827
X2.7344 Y-0.2614
Y-0.2348
X2.724 Y-0.2135
X2.7031 Y-0.1922
X2.6823 Y-0.1816
X2.6563 Y-0.1763
X2.625
X2.6094 Y-0.171
X2.5937 Y-0.1603
X2.5885 Y-0.1444
Y-0.1337
X2.5937 Y-0.1178
X2.6094 Y-0.1071
X2.625 Y-0.1018
X2.6563
X2.6719 Y-0.1071
X2.6823 Y-0.1178
X2.6875 Y-0.1284
X2.7188
X2.7135 Y-0.1125
X2.6979 Y-0.0912
X2.6771 Y-0.0752
X2.651 Y-0.0699
X2.625
X2.6042 Y-0.0752
X2.5833 Y-0.0859
X2.5625 Y-0.1071
X2.5573 Y-0.1284
Y-0.1497
X2.5625 Y-0.171
X2.5833 Y-0.1922
X2.6042 Y-0.2029
X2.625 Y-0.2082
Z0.2
G00 X2.5 Y-0.288
G01 Z-0.006 F3.3
X2.3437 F10.
Y-0.0699
X2.3125
Y-0.3199
X2.5
Y-0.288
Z0.2
G00 X2.776 Y-0.3199
G01 Z-0.006 F3.3
X2.8073 F10.
X2.8281 Y-0.2561
X2.9323
X2.9531 Y-0.3199
X2.9844
X2.901 Y-0.0699
X2.8594
X2.776 Y-0.3199
Z0.2
G00 X2.8333 Y-0.2348
G01 Z-0.006 F3.3
X2.8802 Y-0.0912 F10.
X2.9271 Y-0.2348
X2.8333
Z0.2
G00 X3.026 Y-0.1071
G01 Z-0.006 F3.3
Y-0.1497 F10.
X3.0573 Y-0.1125
Y-0.3199
X3.0885
Y-0.0699
X3.0573
X3.026 Y-0.1071
Z0.2
G00 X1.4375 Y-2.625
G01 Z-0.006 F3.3
X1.4063 F10.
Y-2.7899
X1.401 Y-2.8112
X1.3906 Y-2.8271
X1.375 Y-2.8378
X1.3542 Y-2.8431
X1.3333
X1.3125 Y-2.8378
X1.2969 Y-2.8271
X1.2865 Y-2.8112
X1.2813 Y-2.7899
Y-2.625
X1.25
Y-2.7899
X1.2552 Y-2.8165
X1.2656 Y-2.8378
X1.2865 Y-2.859
X1.3073 Y-2.8697
X1.3333 Y-2.875
X1.3542
X1.3802 Y-2.8697
X1.401 Y-2.859
X1.4219 Y-2.8378
X1.4323 Y-2.8165
X1.4375 Y-2.7899
Y-2.625
Z0.2
G00 X1.2083 Y-2.875
G01 Z-0.006 F3.3
Y-2.625 F10.
X1.1615
X1.0833 Y-2.8484
X1.0052 Y-2.625
X0.9583
Y-2.875
X0.9896
Y-2.6782
X1.0625 Y-2.875
X1.1042
X1.1771 Y-2.6782
Y-2.875
X1.2083
Z0.2
G00 X0.9167 Y-2.8165
G01 Z-0.006 F3.3
Y-2.7899 F10.
X0.9063 Y-2.7686
X0.8854 Y-2.7473
X0.8646 Y-2.7367
X0.8385 Y-2.7314
X0.8073
X0.7917 Y-2.7261
X0.776 Y-2.7154
X0.7708 Y-2.6995
Y-2.6888
X0.776 Y-2.6729
X0.7917 Y-2.6622
X0.8073 Y-2.6569
X0.8385
X0.8542 Y-2.6622
X0.8646 Y-2.6729
X0.8698 Y-2.6835
X0.901
X0.8958 Y-2.6676
X0.8802 Y-2.6463
X0.8594 Y-2.6303
X0.8333 Y-2.625
X0.8073
X0.7865 Y-2.6303
X0.7656 Y-2.641
X0.7448 Y-2.6622
X0.7396 Y-2.6835
Y-2.7048
X0.7448 Y-2.7261
X0.7656 Y-2.7473
X0.7865 Y-2.758
X0.8073 Y-2.7633
X0.8385
X0.8594 Y-2.7686
X0.875 Y-2.7793
X0.8854 Y-2.7952
Y-2.8112
X0.875 Y-2.8271
X0.8594 Y-2.8378
X0.8385 Y-2.8431
X0.7969
X0.776 Y-2.8378
X0.7604 Y-2.8218
X0.7552 Y-2.8059
X0.724
X0.7292 Y-2.8271
X0.7448 Y-2.8537
X0.7708 Y-2.8697
X0.7969 Y-2.875
X0.8385
X0.8646 Y-2.8697
X0.8854 Y-2.859
X0.9063 Y-2.8378
X0.9167 Y-2.8165
Z0.2
G00 X0.6823 Y-2.8537
G01 Z-0.006 F3.3
Y-2.8431 F10.
X0.526
Y-2.625
X0.4948
Y-2.875
X0.6823
Y-2.8537
Z0.2
G00 X1.2031 Y-3.5125
G01 Z-0.006 F3.3
Y-3.7625 F10.
X1.2344
Y-3.6508
X1.3281
X1.3542 Y-3.6455
X1.375 Y-3.6295
X1.3906 Y-3.6082
X1.3958 Y-3.5923
Y-3.571
X1.3906 Y-3.5551
X1.375 Y-3.5338
X1.3542 Y-3.5178
X1.3281 Y-3.5125
X1.2031
Z0.2
G00 X1.2344 Y-3.6189
G01 Z-0.006 F3.3
Y-3.5391 F10.
X1.3333
X1.349 Y-3.5444
X1.3594 Y-3.5551
X1.3646 Y-3.571
Y-3.587
X1.3594 Y-3.6029
X1.349 Y-3.6136
X1.3333 Y-3.6189
X1.2344
Z0.2
G00 X1.4375 Y-3.5923
G01 Z-0.006 F3.3
X1.4687 Y-3.5551 F10.
Y-3.7625
X1.5
Y-3.5125
X1.4687
X1.4375 Y-3.5497
Y-3.5923
Z0.2
G00 X3.25 Y-3.4016
G01 Z-0.006 F3.3
X3.3333 F10.
Y-3.625
X3.3646
Y-3.4016
X3.4479
Y-3.375
X3.25
Y-3.4016
Z0.2
G00 X3.5208 Y-3.625
G01 Z-0.006 F3.3
X3.5521 F10.
Y-3.375
X3.5208
X3.4896 Y-3.4122
Y-3.4548
X3.5208 Y-3.4176
Y-3.625
Z0.2
G00 Z0.6

(--- END OF PREVIOUS OPERATION  INTERMEDIATE CLEANUP ---)
M05
M09
G28 G91 Z0.
G90
G49
G28 G91 X0. Y0.
G90
M01

G49 G40 G80
G28 G91 Z0.
G90
G28 G91 X0. Y0.
G90


(DRILL1)
G17 G90 G94
G00 X2.75 Y-0.6113
G43 Z0.6 H02
G00 Z0.2
G98 G81 X2.75 Y-0.6113 Z-0.07 R0.2 F13.3
X1.875 Y-0.4449
X0.9375 Y-0.82
X1.875 Y-1.965
Y-2.875
X2.75 Y-3.625
X1.875 Y-4.075
G80
Z0.6

(--- END OF PREVIOUS OPERATION  INTERMEDIATE CLEANUP ---)
M05
M09
G28 G91 Z0.
G90
G49
G28 G91 X0. Y0.
G90
M01

G49 G40 G80
G28 G91 Z0.
G90
G28 G91 X0. Y0.
G90


(SHORT 532 HSS)
G28 G91 Z0.
G90
M09
M01
T1 M06
T3
S1100 M03
G17 G90 G94
G54
M08
G00 X1.875 Y-0.4449
G43 Z0.6 H01
G00 Z0.2
G83 X1.875 Y-0.4449 Z-0.75 R0.2 Q0.0391 F2.6
X0.9375 Y-0.82
X1.875 Y-1.965
G80
Z0.6

(--- END OF PREVIOUS OPERATION  INTERMEDIATE CLEANUP ---)
M05
M09
G28 G91 Z0.
G90
G49
G28 G91 X0. Y0.
G90
M01

G49 G40 G80
G28 G91 Z0.
G90
G28 G91 X0. Y0.
G90


(LONG 532 HSS)
G17 G90 G94
G00 X1.875 Y-1.965
G43 Z0.6 H01
G00 Z0.2
G83 X1.875 Y-1.965 Z-4.133 R0.2 Q0.0391 F2.6
G80
Z0.6

(--- END OF PREVIOUS OPERATION  INTERMEDIATE CLEANUP ---)
M05
M09
G28 G91 Z0.
G90
G49
G28 G91 X0. Y0.
G90
M01

G49 G40 G80
G28 G91 Z0.
G90
G28 G91 X0. Y0.
G90


(LONG 532 HSS 2)
G17 G90 G94
G00 X0.9375 Y-0.82
G43 Z0.6 H01
G00 Z0.2
G83 X0.9375 Y-0.82 Z-2.9219 R0.2 Q0.0391 F2.6
G80
Z0.6

(--- END OF PREVIOUS OPERATION  INTERMEDIATE CLEANUP ---)
M05
M09
G28 G91 Z0.
G90
G49
G28 G91 X0. Y0.
G90
M01

G49 G40 G80
G28 G91 Z0.
G90
G28 G91 X0. Y0.
G90


(SHORT 316 HSS)
G28 G91 Z0.
G90
M09
M01
T3 M06
T11
S917 M03
G17 G90 G94
G54
M08
G00 X1.875 Y-4.075
G43 Z0.6 H03
G00 Z0.2
G83 X1.875 Y-4.075 Z-0.75 R0.2 Q0.0469 F2.6
X2.75 Y-0.6113
G80
Z0.6

(--- END OF PREVIOUS OPERATION  INTERMEDIATE CLEANUP ---)
M05
M09
G28 G91 Z0.
G90
G49
G28 G91 X0. Y0.
G90
M01

G49 G40 G80
G28 G91 Z0.
G90
G28 G91 X0. Y0.
G90


(LONG 316 HSS)
G17 G90 G94
G00 X1.875 Y-4.075
G43 Z0.6 H03
G00 Z0.2
G83 X1.875 Y-4.075 Z-3.1193 R0.2 Q0.0469 F2.6
G80
Z0.6

(--- END OF PREVIOUS OPERATION  INTERMEDIATE CLEANUP ---)
M05
M09
G28 G91 Z0.
G90
G49
G28 G91 X0. Y0.
G90
M01

G49 G40 G80
G28 G91 Z0.
G90
G28 G91 X0. Y0.
G90


(LONG 316 HSS 2)
G17 G90 G94
G00 X2.75 Y-0.6113
G43 Z0.6 H03
G00 Z0.2
G83 X2.75 Y-0.6113 Z-2.5563 R0.2 Q0.0469 F2.6
G80
Z0.6

(--- END OF PREVIOUS OPERATION  INTERMEDIATE CLEANUP ---)
M05
M09
G28 G91 Z0.
G90
G49
G28 G91 X0. Y0.
G90
M01

G49 G40 G80
G28 G91 Z0.
G90
G28 G91 X0. Y0.
G90


(DRILL20 2)
G28 G91 Z0.
G90
M09
M01
T11 M06
T16
S2206 M03
G17 G90 G94
G54
M08
G00 X2.75 Y-0.6113
G43 Z0.6 H11
G00 Z0.2
G81 X2.75 Y-0.6113 Z-0.3251 R0.2 F14.8
G80
Z0.6

(--- END OF PREVIOUS OPERATION  INTERMEDIATE CLEANUP ---)
M05
M09
G28 G91 Z0.
G90
G49
G28 G91 X0. Y0.
G90
M01

G49 G40 G80
G28 G91 Z0.
G90
G28 G91 X0. Y0.
G90


(DRILL6)
G17 G90 G94
G00 X1.875 Y-2.875
G43 Z0.6 H11
G00 Z0.2
G83 X1.875 Y-2.875 Z-2.0107 R0.2 Q0.0605 F14.8
G80
Z0.6

(--- END OF PREVIOUS OPERATION  INTERMEDIATE CLEANUP ---)
M05
M09
G28 G91 Z0.
G90
G49
G28 G91 X0. Y0.
G90
M01

G49 G40 G80
G28 G91 Z0.
G90
G28 G91 X0. Y0.
G90


(DRILL7)
G28 G91 Z0.
G90
M09
M01
T16 M06
T11
S1833 M03
G17 G90 G94
G54
M08
G00 X1.875 Y-4.075
G43 Z0.6 H16
G00 Z0.2
G83 X1.875 Y-4.075 Z-0.7717 R0.2 Q0.0937 F15.9
G80
Z0.6

(--- END OF PREVIOUS OPERATION  INTERMEDIATE CLEANUP ---)
M05
M09
G28 G91 Z0.
G90
G49
G28 G91 X0. Y0.
G90
M01

G49 G40 G80
G28 G91 Z0.
G90
G28 G91 X0. Y0.
G90


(DRILL7 4)
G17 G90 G94
G00 X1.875 Y-1.965
G43 Z0.6 H16
G00 Z0.2
G83 X1.875 Y-1.965 Z-0.6797 R0.2 Q0.0937 F15.9
Y-0.4449
G80
Z0.6

(--- END OF PREVIOUS OPERATION  INTERMEDIATE CLEANUP ---)
M05
M09
G28 G91 Z0.
G90
G49
G28 G91 X0. Y0.
G90
M01

G49 G40 G80
G28 G91 Z0.
G90
G28 G91 X0. Y0.
G90


(DRILL7 3)
G17 G90 G94
G00 X1.875 Y-2.875
G43 Z0.6 H16
G00 Z0.2
G83 X1.875 Y-2.875 Z-1.3027 R0.2 Q0.0937 F15.9
X2.75 Y-3.625
G80
Z0.6

(--- END OF PREVIOUS OPERATION  INTERMEDIATE CLEANUP ---)
M05
M09
G28 G91 Z0.
G90
G49
G28 G91 X0. Y0.
G90
M01

G49 G40 G80
G28 G91 Z0.
G90
G28 G91 X0. Y0.
G90


(LONG)
G17 G90 G94
G00 X2.75 Y-3.625
G43 Z0.6 H16
G00 Z0.2
G83 X2.75 Y-3.625 Z-4.2377 R0.2 Q0.0937 F15.9
G80
Z0.6

(--- END OF PREVIOUS OPERATION  INTERMEDIATE CLEANUP ---)
M05
M09
G28 G91 Z0.
G90
G49
G28 G91 X0. Y0.
G90
M01

G49 G40 G80
G28 G91 Z0.
G90
G28 G91 X0. Y0.
G90


(DRILL11)
G28 G91 Z0.
G90
M09
M01
T11 M06
T13
S342 M03
G17 G90 G94
G54
M08
G00 X1.875 Y-0.4449
G43 Z0.6 H11
G00 Z0.2
G83 X1.875 Y-0.4449 Z-0.637 R0.2 Q0.06 F2.1
Y-1.965
Y-2.875
G80
Z0.6

(--- END OF PREVIOUS OPERATION  INTERMEDIATE CLEANUP ---)
M05
M09
G28 G91 Z0.
G90
G49
G28 G91 X0. Y0.
G90
M01

G49 G40 G80
G28 G91 Z0.
G90
G28 G91 X0. Y0.
G90


(DRILL12)
S288 M03
G17 G90 G94
G00 X1.875 Y-4.075
G43 Z0.6 H11
G00 Z0.2
G83 X1.875 Y-4.075 Z-0.698 R0.2 Q0.06 F2.3
X2.75 Y-3.625
G80
Z0.6

(--- END OF PREVIOUS OPERATION  INTERMEDIATE CLEANUP ---)
M05
M09
G28 G91 Z0.
G90
G49
G28 G91 X0. Y0.
G90
M01

G49 G40 G80
G28 G91 Z0.
G90
G28 G91 X0. Y0.
G90


(DRILL13)
G28 G91 Z0.
G90
M09
M01
T13 M06
T4
S157 M03
G17 G90 G94
G54
M08
G00 X1.875 Y-0.4449
G43 Z0.6 H13
G00 Z0.2
M29 S157
G84 X1.875 Y-0.4449 Z-0.507 R0.2 P1000 F7.9
Y-1.965
Y-2.875
G80
Z0.6

(--- END OF PREVIOUS OPERATION  INTERMEDIATE CLEANUP ---)
M05
M09
G28 G91 Z0.
G90
G49
G28 G91 X0. Y0.
G90
M01

G49 G40 G80
G28 G91 Z0.
G90
G28 G91 X0. Y0.
G90


(DRILL14)
G28 G91 Z0.
G90
M09
M01
T4 M06
T50
S122 M03
G17 G90 G94
G54
M08
G00 X1.875 Y-4.075
G43 Z0.6 H04
G00 Z0.2
M29 S122
G84 X1.875 Y-4.075 Z-0.65 R0.2 P1000 F6.8
X2.75 Y-3.625
G80
Z0.6

(--- END OF PREVIOUS OPERATION  INTERMEDIATE CLEANUP ---)
M05
M09
G28 G91 Z0.
G90
G49
G28 G91 X0. Y0.
G90
M01

G49 G40 G80
G28 G91 Z0.
G90
G28 G91 X0. Y0.
G90


(DRILL15)
G28 G91 Z0.
G90
M09
M01
T50 M06
T51
S753 M03
G17 G90 G94
G54
M08
G00 X0.9375 Y-0.82
G43 Z0.6 H50
G00 Z0.2
G83 X0.9375 Y-0.82 Z-2.353 R0.2 Q0.1533 F5.
G80
Z0.6

(--- END OF PREVIOUS OPERATION  INTERMEDIATE CLEANUP ---)
M05
M09
G28 G91 Z0.
G90
G49
G28 G91 X0. Y0.
G90
M01

G49 G40 G80
G28 G91 Z0.
G90
G28 G91 X0. Y0.
G90


(DRILL16)
G28 G91 Z0.
G90
M09
M01
T51 M06
T6
S592 M03
G17 G90 G94
G54
M08
G00 X0.9375 Y-0.82
G43 Z0.6 H51
G00 Z0.2
G81 X0.9375 Y-0.82 Z-2.157 R0.2 F10.7
G80
Z0.6

(--- END OF PREVIOUS OPERATION  INTERMEDIATE CLEANUP ---)
M05
M09
G28 G91 Z0.
G90
G49
G28 G91 X0. Y0.
G90
M01

G49 G40 G80
G28 G91 Z0.
G90
G28 G91 X0. Y0.
G90


(DRILL17)
G28 G91 Z0.
G90
M09
M01
T6 M06
T2
S109 M03
G17 G90 G94
G54
M08
G00 X0.9375 Y-0.82
G43 Z0.6 H06
G00 Z0.2
M29 S109
G84 X0.9375 Y-0.82 Z-1.645 R0.2 P1000 F6.4
G80
Z0.6

M05
M09
G28 G91 Z0.
G90
G49
G28 G91 X0. Y0.
G90

G28 G91 Z0.
G90
G49
G28 G91 X0. Y0.
G90
M01

M30
%
