%
O1401
(T1 D=0.1563 CR=0. TAPER=118DEG - ZMIN=-3.2345 - DRILL)
(T2 D=0.842 CR=0. TAPER=45DEG - ZMIN=-0.07 - CHAMFER MILL)
(T3 D=0.1875 CR=0. TAPER=118DEG - ZMIN=-2.7505 - DRILL)
(T4 D=0.5625 CR=0. - ZMIN=-0.569 - RIGHT HAND TAP)
(T6 D=0.629 CR=0. - ZMIN=-1.645 - RIGHT HAND TAP)
(T11 D=0.242 CR=0. TAPER=118DEG - ZMIN=-1.8227 - DRILL)
(T13 D=0.4375 CR=0. - ZMIN=-0.507 - RIGHT HAND TAP)
(T16 D=0.375 CR=0. TAPER=118DEG - ZMIN=-1.3038 - DRILL)
(T50 D=0.613 CR=0. - ZMIN=-2.353 - FORM MILL)
(T51 D=0.7045 CR=0. - ZMIN=-2.157 - FORM MILL)
G90 G94 G17 G49 G40 G80
G20
G28 G91 Z0.
G90

(TRACE1)
T2 M06
T1
S5000 M03
G17 G90 G94
G54
M08
G00 X2.7396 Y-1.32
G43 Z0.6 H02
G00 Z0.2
G01 Z-0.006 F3.3
Y-1.0966 F10.
X2.8229
Y-1.07
X2.625
Y-1.0966
X2.7083
Y-1.32
X2.7396
Z0.2
G00 X2.8958
G01 Z-0.006 F3.3
X2.9271 F10.
Y-1.07
X2.8958
X2.8646 Y-1.1072
Y-1.1498
X2.8958 Y-1.1126
Y-1.32
Z0.2
G00 X2.8438 Y-2.1255
G01 Z-0.006 F3.3
X2.8125 F10.
Y-2.2904
X2.8177 Y-2.317
X2.8281 Y-2.3383
X2.849 Y-2.3595
X2.8698 Y-2.3702
X2.8958 Y-2.3755
X2.9167
X2.9427 Y-2.3702
X2.9635 Y-2.3595
X2.9844 Y-2.3383
X2.9948 Y-2.317
X3. Y-2.2904
Y-2.1255
X2.9687
Y-2.2904
X2.9635 Y-2.3117
X2.9531 Y-2.3276
X2.9375 Y-2.3383
X2.9167 Y-2.3436
X2.8958
X2.875 Y-2.3383
X2.8594 Y-2.3276
X2.849 Y-2.3117
X2.8438 Y-2.2904
Y-2.1255
Z0.2
G00 X2.7708 Y-2.2974
G01 Z-0.006 F3.3
Y-2.1255 F10.
X2.724
X2.6458 Y-2.3489
X2.5677 Y-2.1255
X2.5208
Y-2.3755
X2.5521
Y-2.1787
X2.625 Y-2.3755
X2.6667
X2.7396 Y-2.1787
Y-2.3755
X2.7708
Y-2.2974
Z0.2
G00 X2.4792 Y-2.317
G01 Z-0.006 F3.3
Y-2.2904 F10.
X2.4688 Y-2.2691
X2.4479 Y-2.2478
X2.4271 Y-2.2372
X2.401 Y-2.2319
X2.3698
X2.3542 Y-2.2266
X2.3385 Y-2.2159
X2.3333 Y-2.2
Y-2.1893
X2.3385 Y-2.1734
X2.3542 Y-2.1627
X2.3698 Y-2.1574
X2.401
X2.4167 Y-2.1627
X2.4271 Y-2.1734
X2.4323 Y-2.184
X2.4635
X2.4583 Y-2.1681
X2.4427 Y-2.1468
X2.4219 Y-2.1308
X2.3958 Y-2.1255
X2.3698
X2.349 Y-2.1308
X2.3281 Y-2.1415
X2.3073 Y-2.1627
X2.3021 Y-2.184
Y-2.2053
X2.3073 Y-2.2266
X2.3281 Y-2.2478
X2.349 Y-2.2585
X2.3698 Y-2.2638
X2.401
X2.4219 Y-2.2691
X2.4375 Y-2.2798
X2.4479 Y-2.2957
Y-2.3117
X2.4375 Y-2.3276
X2.4219 Y-2.3383
X2.401 Y-2.3436
X2.3594
X2.3385 Y-2.3383
X2.3229 Y-2.3223
X2.3177 Y-2.3064
X2.2865
X2.2917 Y-2.3276
X2.3073 Y-2.3542
X2.3333 Y-2.3702
X2.3594 Y-2.3755
X2.401
X2.4271 Y-2.3702
X2.4479 Y-2.3595
X2.4688 Y-2.3383
X2.4792 Y-2.317
Z0.2
G00 X2.2448 Y-2.3436
G01 Z-0.006 F3.3
X2.0885 F10.
Y-2.1255
X2.0573
Y-2.3755
X2.2448
Y-2.3436
Z0.2
G00 X1.2184 Y-2.6497
G01 Z-0.006 F3.3
X1.2135 Y-2.635 F10.
X1.1719
X1.0885 Y-2.885
X1.1198
X1.1406 Y-2.8212
X1.2448
X1.2656 Y-2.885
X1.2969
X1.2184 Y-2.6497
Z0.2
G00 X1.2396 Y-2.7999
G01 Z-0.006 F3.3
X1.1458 F10.
X1.1927 Y-2.6563
X1.2396 Y-2.7999
Z0.2
G00 X1.0313 Y-2.6935
G01 Z-0.006 F3.3
X1.026 Y-2.6776 F10.
X1.0104 Y-2.6563
X0.9896 Y-2.6403
X0.9635 Y-2.635
X0.9375
X0.9167 Y-2.6403
X0.8958 Y-2.651
X0.875 Y-2.6722
X0.8698 Y-2.6935
Y-2.7148
X0.875 Y-2.7361
X0.8958 Y-2.7573
X0.9167 Y-2.768
X0.9375 Y-2.7733
X0.9687
X0.9896 Y-2.7786
X1.0052 Y-2.7893
X1.0156 Y-2.8052
Y-2.8212
X1.0052 Y-2.8371
X0.9896 Y-2.8478
X0.9687 Y-2.8531
X0.9271
X0.9063 Y-2.8478
X0.8906 Y-2.8318
X0.8854 Y-2.8159
X0.8542
X0.8594 Y-2.8371
X0.875 Y-2.8637
X0.901 Y-2.8797
X0.9271 Y-2.885
X0.9687
X0.9948 Y-2.8797
X1.0156 Y-2.869
X1.0365 Y-2.8478
X1.0469 Y-2.8265
Y-2.7999
X1.0365 Y-2.7786
X1.0156 Y-2.7573
X0.9948 Y-2.7467
X0.9687 Y-2.7414
X0.9375
X0.9219 Y-2.7361
X0.9063 Y-2.7254
X0.901 Y-2.7095
Y-2.6988
X0.9063 Y-2.6829
X0.9219 Y-2.6722
X0.9375 Y-2.6669
X0.9687
X0.9844 Y-2.6722
X0.9948 Y-2.6829
X1. Y-2.6935
X1.0313
Z0.2
G00 X0.8125 Y-2.8531
G01 Z-0.006 F3.3
X0.6563 F10.
Y-2.635
X0.625
Y-2.885
X0.8125
Y-2.8531
Z0.2
G00 X2.5781 Y-3.6325
G01 Z-0.006 F3.3
Y-3.8825 F10.
X2.6094
Y-3.7708
X2.7031
X2.7292 Y-3.7655
X2.75 Y-3.7495
X2.7656 Y-3.7282
X2.7708 Y-3.7123
Y-3.691
X2.7656 Y-3.6751
X2.75 Y-3.6538
X2.7292 Y-3.6378
X2.7031 Y-3.6325
X2.5781
Z0.2
G00 X2.724 Y-3.7336
G01 Z-0.006 F3.3
X2.7083 Y-3.7389 F10.
X2.6094
Y-3.6591
X2.7083
X2.724 Y-3.6644
X2.7344 Y-3.6751
X2.7396 Y-3.691
Y-3.707
X2.7344 Y-3.7229
X2.724 Y-3.7336
Z0.2
G00 X2.8125 Y-3.7123
G01 Z-0.006 F3.3
X2.8438 Y-3.6751 F10.
Y-3.8825
X2.875
Y-3.6325
X2.8438
X2.8125 Y-3.6697
Y-3.7123
Z0.2
G00 Z0.6

(DRILL1)
/ G28 G91 Z0.
/ G90
/ T2 M06
/ T1
/ S5000 M03
G17 G90 G94
/ G54
/ M08
/ G49
/ G00 X2.125 Y-4.195
/ G00 G43 Z0.6 H02
G00 X2.125 Y-4.195
Z0.6
Z0.2
G98 G81 X2.125 Y-4.195 Z-0.07 R0.2 F13.3
X1. Y-3.385
X2.125 Y-2.813
Y-1.32
X1. Y-1.0725
G80
Z0.6
M05
G28 G91 Z0.
G90
G49

(SHORT 532 HSS)
/ G28 G91 Z0.
/ G90
M09
M01
T1 M06
T3
S1100 M03
G17 G90 G94
G54
M08
G00 X1. Y-3.385
G43 Z0.6 H01
G00 Z0.2
G83 X1. Y-3.385 Z-0.7969 R0.2 Q0.0391 F2.6
Y-1.0725
G80
Z0.6

(LONG 532 HSS)
/ G28 G91 Z0.
/ G90
/ T1 M06
/ T3
/ S1100 M03
G17 G90 G94
/ G54
/ M08
/ G49
/ G00 X1. Y-1.0725
/ G00 G43 Z0.6 H01
G00 X1. Y-1.0725
Z0.6
Z0.2
G83 X1. Y-1.0725 Z-3.2345 R0.2 Q0.0391 F2.6
G80
Z0.6
M05
G28 G91 Z0.
G90
G49

(SHORT 316 HSS)
/ G28 G91 Z0.
/ G90
M09
M01
T3 M06
T11
S917 M03
G17 G90 G94
G54
M08
G00 X2.125 Y-1.32
G43 Z0.6 H03
G00 Z0.2
G83 X2.125 Y-1.32 Z-1.5308 R0.2 Q0.0469 F2.6
Y-4.195
G80
Z0.6

(LONG 316 HSS)
/ G28 G91 Z0.
/ G90
/ T3 M06
/ T11
/ S917 M03
G17 G90 G94
/ G54
/ M08
/ G49
/ G00 X2.125 Y-4.195
/ G00 G43 Z0.6 H03
G00 X2.125 Y-4.195
Z0.6
Z0.2
G83 X2.125 Y-4.195 Z-2.7505 R0.2 Q0.0469 F2.6
G80
Z0.6
M05
G28 G91 Z0.
G90
G49

(DRILL6)
/ G28 G91 Z0.
/ G90
M09
M01
T11 M06
T16
S2206 M03
G17 G90 G94
G54
M08
G00 X2.125 Y-2.813
G43 Z0.6 H11
G00 Z0.2
G83 X2.125 Y-2.813 Z-1.8227 R0.2 Q0.0605 F14.8
G80
Z0.6
M05
G28 G91 Z0.
G90
G49

(DRILL7)
/ G28 G91 Z0.
/ G90
M09
M01
T16 M06
T11
S1833 M03
G17 G90 G94
G54
M08
G00 X2.125 Y-2.813
G43 Z0.6 H16
G00 Z0.2
G83 X2.125 Y-2.813 Z-1.3038 R0.2 Q0.0937 F15.9
G80
Z0.6
M05
G28 G91 Z0.
G90
G49

(DRILL11)
/ G28 G91 Z0.
/ G90
M09
M01
T11 M06
T13
S2227 M03
G17 G90 G94
G54
M08
G00 X2.125 Y-2.813
G43 Z0.6 H11
G00 Z0.2
G81 X2.125 Y-2.813 Z-0.637 R0.2 F13.
X1. Y-3.385
G80
Z0.6

(DRILL12)
/ G28 G91 Z0.
/ G90
/ T11 M06
/ T13
S1699 M03
G17 G90 G94
/ G54
/ M08
/ G49
/ G00 X2.125 Y-1.32
/ G00 G43 Z0.6 H11
G00 X2.125 Y-1.32
Z0.6
Z0.2
G81 X2.125 Y-1.32 Z-0.698 R0.2 F15.
Y-4.195
G80
Z0.6
M05
G28 G91 Z0.
G90
G49

(DRILL13)
/ G28 G91 Z0.
/ G90
M09
M01
T13 M06
T4
S157 M03
G17 G90 G94
G54
M08
G00 X1. Y-3.385
G43 Z0.6 H13
G00 Z0.2
M29 S157
G84 X1. Y-3.385 Z-0.507 R0.2 P1000 F7.9
X2.125 Y-2.813
G80
Z0.6
M05
G28 G91 Z0.
G90
G49

(DRILL14)
/ G28 G91 Z0.
/ G90
M09
M01
T4 M06
T50
S122 M03
G17 G90 G94
G54
M08
G00 X2.125 Y-1.32
G43 Z0.6 H04
G00 Z0.2
M29 S122
G84 X2.125 Y-1.32 Z-0.569 R0.2 P1000 F6.8
Y-4.195
G80
Z0.6
M05
G28 G91 Z0.
G90
G49

(DRILL15)
/ G28 G91 Z0.
/ G90
M09
M01
T50 M06
T51
S753 M03
G17 G90 G94
G54
M08
G00 X1. Y-1.0725
G43 Z0.6 H50
G00 Z0.2
G83 X1. Y-1.0725 Z-2.353 R0.2 Q0.1533 F5.
G80
Z0.6
M05
G28 G91 Z0.
G90
G49

(DRILL16)
/ G28 G91 Z0.
/ G90
M09
M01
T51 M06
T6
S592 M03
G17 G90 G94
G54
M08
G00 X1. Y-1.0725
G43 Z0.6 H51
G00 Z0.2
G81 X1. Y-1.0725 Z-2.157 R0.2 F10.7
G80
Z0.6
M05
G28 G91 Z0.
G90
G49

(DRILL17)
/ G28 G91 Z0.
/ G90
M09
M01
T6 M06
T2
S109 M03
G17 G90 G94
G54
M08
G00 X1. Y-1.0725
G43 Z0.6 H06
G00 Z0.2
M29 S109
G84 X1. Y-1.0725 Z-1.645 R0.2 P1000 F6.4
G80
Z0.6

M05
M09
G28 G91 Z0.
G90
G49
G28 G91 X0. Y0.
G90
M30
%
